contributed-vectors/wallcanic_walls.svg

<?xml version="1.0" encoding="UTF-8" standalone="no"?>
<svg
   xmlns:dc="http://purl.org/dc/elements/1.1/"
   xmlns:cc="http://creativecommons.org/ns#"
   xmlns:rdf="http://www.w3.org/1999/02/22-rdf-syntax-ns#"
   xmlns:svg="http://www.w3.org/2000/svg"
   xmlns="http://www.w3.org/2000/svg"
   xmlns:sodipodi="http://sodipodi.sourceforge.net/DTD/sodipodi-0.dtd"
   xmlns:inkscape="http://www.inkscape.org/namespaces/inkscape"
   viewBox="0 0 192 192"
   version="1.1"
   id="svg16"
   sodipodi:docname="wallcanic_walls.svg"
   inkscape:version="0.92.4 (5da689c313, 2019-01-14)">
  <metadata
     id="metadata20">
    <rdf:RDF>
      <cc:Work
         rdf:about="">
        <dc:format>image/svg+xml</dc:format>
        <dc:type
           rdf:resource="http://purl.org/dc/dcmitype/StillImage" />
        <dc:title></dc:title>
      </cc:Work>
    </rdf:RDF>
  </metadata>
  <sodipodi:namedview
     pagecolor="#ffffff"
     bordercolor="#666666"
     borderopacity="1"
     objecttolerance="10"
     gridtolerance="10"
     guidetolerance="10"
     inkscape:pageopacity="0"
     inkscape:pageshadow="2"
     inkscape:window-width="1920"
     inkscape:window-height="1017"
     id="namedview18"
     showgrid="true"
     inkscape:zoom="3.4766083"
     inkscape:cx="121.60047"
     inkscape:cy="94.519428"
     inkscape:window-x="-8"
     inkscape:window-y="-8"
     inkscape:window-maximized="1"
     inkscape:current-layer="svg16"
     inkscape:snap-global="true">
    <inkscape:grid
       type="xygrid"
       id="grid827"
       spacingx="4"
       spacingy="4" />
  </sodipodi:namedview>
  <defs
     id="defs4">
    <style
       id="style2">.a{fill:none;stroke:#b1b5bd;stroke-linecap:round;stroke-linejoin:round;isolation:isolate;opacity:0.63;}</style>
  </defs>
  <rect
     class="a"
     x="20"
     y="20"
     width="152"
     height="140"
     rx="10"
     id="rect6"
     style="opacity:1;isolation:isolate;fill:#56595b;stroke:none;stroke-linecap:round;stroke-linejoin:round" />
  <rect
     style="opacity:1;vector-effect:none;fill:#ff837d;fill-opacity:1;fill-rule:evenodd;stroke:none;stroke-width:8;stroke-linecap:round;stroke-linejoin:round;stroke-miterlimit:4;stroke-dasharray:none;paint-order:stroke fill markers"
     id="rect840"
     width="48"
     height="48"
     x="12"
     y="8"
     ry="24" />
  <rect
     style="opacity:1;vector-effect:none;fill:#ff837d;fill-opacity:1;fill-rule:evenodd;stroke:none;stroke-width:8;stroke-linecap:round;stroke-linejoin:round;stroke-miterlimit:4;stroke-dasharray:none;paint-order:stroke fill markers"
     id="rect840-1"
     width="40"
     height="40"
     x="32"
     y="40"
     ry="20" />
  <rect
     style="opacity:1;vector-effect:none;fill:#ffb0ac;fill-opacity:1;fill-rule:evenodd;stroke:none;stroke-width:8;stroke-linecap:round;stroke-linejoin:round;stroke-miterlimit:4;stroke-dasharray:none;paint-order:stroke fill markers"
     id="rect840-14"
     width="48"
     height="48"
     x="44"
     y="12"
     ry="24" />
  <rect
     style="opacity:1;vector-effect:none;fill:#ff837d;fill-opacity:1;fill-rule:evenodd;stroke:none;stroke-width:8;stroke-linecap:round;stroke-linejoin:round;stroke-miterlimit:4;stroke-dasharray:none;paint-order:stroke fill markers"
     id="rect945"
     width="16"
     height="44"
     x="88"
     y="68" />
  <rect
     style="opacity:1;vector-effect:none;fill:#ffb0ac;fill-opacity:1;fill-rule:evenodd;stroke:none;stroke-width:7.33333349;stroke-linecap:round;stroke-linejoin:round;stroke-miterlimit:4;stroke-dasharray:none;paint-order:stroke fill markers"
     id="rect840-19"
     width="44"
     height="44"
     x="64"
     y="40"
     ry="22" />
  <rect
     style="opacity:1;vector-effect:none;fill:#ffb0ac;fill-opacity:1;fill-rule:evenodd;stroke:none;stroke-width:8;stroke-linecap:round;stroke-linejoin:round;stroke-miterlimit:4;stroke-dasharray:none;paint-order:stroke fill markers"
     id="rect840-14-2"
     width="48"
     height="48"
     x="72"
     y="8"
     ry="24" />
  <rect
     style="opacity:1;vector-effect:none;fill:#ffb0ac;fill-opacity:1;fill-rule:evenodd;stroke:none;stroke-width:7.33333349;stroke-linecap:round;stroke-linejoin:round;stroke-miterlimit:4;stroke-dasharray:none;paint-order:stroke fill markers"
     id="rect840-19-75"
     width="44"
     height="44"
     x="92"
     y="32"
     ry="22" />
  <rect
     style="opacity:1;vector-effect:none;fill:#ffd6d4;fill-opacity:1;fill-rule:evenodd;stroke:none;stroke-width:7.33333349;stroke-linecap:round;stroke-linejoin:round;stroke-miterlimit:4;stroke-dasharray:none;paint-order:stroke fill markers"
     id="rect840-19-9"
     width="44"
     height="44"
     x="80"
     y="24"
     ry="22" />
  <rect
     style="opacity:1;vector-effect:none;fill:#ffd6d4;fill-opacity:1;fill-rule:evenodd;stroke:none;stroke-width:7.33333349;stroke-linecap:round;stroke-linejoin:round;stroke-miterlimit:4;stroke-dasharray:none;paint-order:stroke fill markers"
     id="rect840-19-5"
     width="44"
     height="44"
     x="96"
     y="8"
     ry="22" />
  <rect
     style="opacity:1;vector-effect:none;fill:#ffd6d4;fill-opacity:1;fill-rule:evenodd;stroke:none;stroke-width:7.33333349;stroke-linecap:round;stroke-linejoin:round;stroke-miterlimit:4;stroke-dasharray:none;paint-order:stroke fill markers"
     id="rect840-19-6"
     width="44"
     height="44"
     x="112"
     y="36"
     ry="22" />
  <rect
     style="opacity:1;vector-effect:none;fill:#ffd6d4;fill-opacity:1;fill-rule:evenodd;stroke:none;stroke-width:8.66666698;stroke-linecap:round;stroke-linejoin:round;stroke-miterlimit:4;stroke-dasharray:none;paint-order:stroke fill markers"
     id="rect840-19-7"
     width="52"
     height="52"
     x="128"
     y="12"
     ry="26" />
  <path
     style="fill:#83868c;stroke:none;stroke-width:1px;stroke-linecap:butt;stroke-linejoin:miter;stroke-opacity:1"
     d="M 88 100 C 85.427422 100 74.046728 117.25998 64 120 C 20 132 20 144 20 144 L 20 162 C 20 167.54 24.46 172 30 172 L 162 172 C 167.54 172 172 167.54 172 162 L 172 136 C 172 136 172 128 132 120 C 120.86072 117.77214 108.00024 101.85634 106.32227 101.59375 C 105.47346 101.46092 104.85905 102.69804 104 102.71094 C 102.25002 102.73725 100.95207 100.51047 99.203125 100.57617 C 97.702675 100.63251 96.737406 102.67504 95.236328 102.71094 C 93.96037 102.74143 92.94923 100 88 100 z "
     id="path943" />
  <rect
     style="opacity:1;vector-effect:none;fill:#ffd6d4;fill-opacity:1;fill-rule:evenodd;stroke:none;stroke-width:8;stroke-linecap:round;stroke-linejoin:round;stroke-miterlimit:4;stroke-dasharray:none;paint-order:stroke fill markers"
     id="rect947"
     width="12"
     height="12"
     x="48"
     y="84"
     ry="6" />
  <path
     style="fill:#ffb0ac;stroke:none;stroke-width:1px;stroke-linecap:butt;stroke-linejoin:miter;stroke-opacity:1"
     d="M 74.898305,103.0678 C 74.606071,101.89514 75.682964,100.37904 76.830509,100 78.620936,99.408607 80,100.52542 80,100.52542 c 0,0 -0.946926,0.57249 -1.59322,1.67797 -0.437646,0.74859 -1.020566,1.6919 -1.881356,1.79661 -0.620505,0.0755 -1.475968,-0.32567 -1.627119,-0.9322 z"
     id="path949"
     inkscape:connector-curvature="0"
     sodipodi:nodetypes="sscsss" />
  <path
     style="fill:#ffb0ac;stroke:none;stroke-width:1.14229929px;stroke-linecap:butt;stroke-linejoin:miter;stroke-opacity:1"
     d="m 118.63817,102.12867 c -0.28281,-1.35121 -2.14433,-2.374549 -3.5129,-2.193498 -2.13529,0.282478 -2.99786,2.116898 -2.99786,2.116898 0,0 1.25851,0.11766 2.47299,0.93295 0.82241,0.55207 1.89106,1.23213 2.8283,0.91162 0.67563,-0.23103 1.35574,-1.06908 1.20947,-1.76797 z"
     id="path949-0"
     inkscape:connector-curvature="0"
     sodipodi:nodetypes="sscsss" />
  <rect
     style="opacity:1;vector-effect:none;fill:#ffd6d4;fill-opacity:1;fill-rule:evenodd;stroke:none;stroke-width:8;stroke-linecap:round;stroke-linejoin:round;stroke-miterlimit:4;stroke-dasharray:none;paint-order:stroke fill markers"
     id="rect966"
     width="4"
     height="4"
     x="120"
     y="104"
     ry="2" />
  <path
     style="fill:#979797;stroke:none;stroke-width:1px;stroke-linecap:butt;stroke-linejoin:miter;stroke-opacity:1"
     d="M 88 100 C 85.427422 100 74.046728 117.25998 64 120 C 62.667366 120.36345 61.378133 120.72673 60.125 121.08984 C 63.1946 124.36064 67.593415 128 72 128 C 77.635779 128 82.26311 124.03028 87.898438 123.95898 C 93.58268 123.88708 95.50399 128.0291 99.898438 127.94922 C 105.8603 127.84085 110.03715 120 116 120 C 118.98142 120 121.01858 124 124 124 C 129.2623 124 132.46288 122.07329 134.22266 120.47266 C 133.46432 120.31488 132.78916 120.15783 132 120 C 120.86072 117.77214 108.00024 101.85634 106.32227 101.59375 C 105.47346 101.46092 104.85905 102.69804 104 102.71094 C 102.25002 102.73725 100.95207 100.51047 99.203125 100.57617 C 97.702675 100.63251 96.737406 102.67504 95.236328 102.71094 C 93.96037 102.74143 92.94923 100 88 100 z "
     id="path968" />
  <path
     style="fill:#b1b5bd;stroke:none;stroke-width:1px;stroke-linecap:butt;stroke-linejoin:miter;stroke-opacity:1"
     d="M 88 100 C 86.651233 100 82.872009 104.74551 78.142578 109.6543 C 80.984579 108.78448 84.471688 108 88 108 C 92.935137 108 97.318769 112 102.25391 112 C 107.30544 112 111.0321 110.37448 113.73633 108.32422 C 109.90092 104.75191 107.04434 101.70675 106.32227 101.59375 C 105.47346 101.46092 104.85905 102.69804 104 102.71094 C 102.25002 102.73725 100.95207 100.51047 99.203125 100.57617 C 97.702675 100.63251 96.737406 102.67504 95.236328 102.71094 C 93.96037 102.74143 92.94923 100 88 100 z "
     id="path970" />
</svg>

<svg xmlns="http://www.w3.org/2000/svg" viewBox="0 0 192 192"><rect width="152" height="140" x="20" y="20" rx="10" style="opacity:1;isolation:isolate;fill:#56595b;stroke:none;stroke-linecap:round;stroke-linejoin:round"/><rect width="48" height="48" x="12" y="8" ry="24" style="opacity:1;vector-effect:none;fill:#ff837d;fill-opacity:1;fill-rule:evenodd;stroke:none;stroke-width:8;stroke-linecap:round;stroke-linejoin:round;stroke-miterlimit:4;stroke-dasharray:none;paint-order:stroke fill markers"/><rect width="40" height="40" x="32" y="40" ry="20" style="opacity:1;vector-effect:none;fill:#ff837d;fill-opacity:1;fill-rule:evenodd;stroke:none;stroke-width:8;stroke-linecap:round;stroke-linejoin:round;stroke-miterlimit:4;stroke-dasharray:none;paint-order:stroke fill markers"/><rect width="48" height="48" x="44" y="12" ry="24" style="opacity:1;vector-effect:none;fill:#ffb0ac;fill-opacity:1;fill-rule:evenodd;stroke:none;stroke-width:8;stroke-linecap:round;stroke-linejoin:round;stroke-miterlimit:4;stroke-dasharray:none;paint-order:stroke fill markers"/><path d="M88 68h16v44H88z" style="opacity:1;vector-effect:none;fill:#ff837d;fill-opacity:1;fill-rule:evenodd;stroke:none;stroke-width:8;stroke-linecap:round;stroke-linejoin:round;stroke-miterlimit:4;stroke-dasharray:none;paint-order:stroke fill markers"/><rect width="44" height="44" x="64" y="40" ry="22" style="opacity:1;vector-effect:none;fill:#ffb0ac;fill-opacity:1;fill-rule:evenodd;stroke:none;stroke-width:7.33333349;stroke-linecap:round;stroke-linejoin:round;stroke-miterlimit:4;stroke-dasharray:none;paint-order:stroke fill markers"/><rect width="48" height="48" x="72" y="8" ry="24" style="opacity:1;vector-effect:none;fill:#ffb0ac;fill-opacity:1;fill-rule:evenodd;stroke:none;stroke-width:8;stroke-linecap:round;stroke-linejoin:round;stroke-miterlimit:4;stroke-dasharray:none;paint-order:stroke fill markers"/><rect width="44" height="44" x="92" y="32" ry="22" style="opacity:1;vector-effect:none;fill:#ffb0ac;fill-opacity:1;fill-rule:evenodd;stroke:none;stroke-width:7.33333349;stroke-linecap:round;stroke-linejoin:round;stroke-miterlimit:4;stroke-dasharray:none;paint-order:stroke fill markers"/><rect width="44" height="44" x="80" y="24" ry="22" style="opacity:1;vector-effect:none;fill:#ffd6d4;fill-opacity:1;fill-rule:evenodd;stroke:none;stroke-width:7.33333349;stroke-linecap:round;stroke-linejoin:round;stroke-miterlimit:4;stroke-dasharray:none;paint-order:stroke fill markers"/><rect width="44" height="44" x="96" y="8" ry="22" style="opacity:1;vector-effect:none;fill:#ffd6d4;fill-opacity:1;fill-rule:evenodd;stroke:none;stroke-width:7.33333349;stroke-linecap:round;stroke-linejoin:round;stroke-miterlimit:4;stroke-dasharray:none;paint-order:stroke fill markers"/><rect width="44" height="44" x="112" y="36" ry="22" style="opacity:1;vector-effect:none;fill:#ffd6d4;fill-opacity:1;fill-rule:evenodd;stroke:none;stroke-width:7.33333349;stroke-linecap:round;stroke-linejoin:round;stroke-miterlimit:4;stroke-dasharray:none;paint-order:stroke fill markers"/><rect width="52" height="52" x="128" y="12" ry="26" style="opacity:1;vector-effect:none;fill:#ffd6d4;fill-opacity:1;fill-rule:evenodd;stroke:none;stroke-width:8.66666698;stroke-linecap:round;stroke-linejoin:round;stroke-miterlimit:4;stroke-dasharray:none;paint-order:stroke fill markers"/><path d="M88 100c-2.573 0-13.953 17.26-24 20-44 12-44 24-44 24v18c0 5.54 4.46 10 10 10h132c5.54 0 10-4.46 10-10v-26s0-8-40-16c-11.14-2.228-24-18.144-25.678-18.406-.849-.133-1.463 1.104-2.322 1.117-1.75.026-3.048-2.2-4.797-2.135-1.5.057-2.466 2.099-3.967 2.135C93.96 102.74 92.95 100 88 100z" style="fill:#83868c;stroke:none;stroke-width:1px;stroke-linecap:butt;stroke-linejoin:miter;stroke-opacity:1"/><rect width="12" height="12" x="48" y="84" ry="6" style="opacity:1;vector-effect:none;fill:#ffd6d4;fill-opacity:1;fill-rule:evenodd;stroke:none;stroke-width:8;stroke-linecap:round;stroke-linejoin:round;stroke-miterlimit:4;stroke-dasharray:none;paint-order:stroke fill markers"/><path d="M74.898 103.068c-.292-1.173.785-2.689 1.933-3.068 1.79-.591 3.169.525 3.169.525s-.947.573-1.593 1.678c-.438.749-1.02 1.692-1.882 1.797-.62.075-1.476-.326-1.627-.932z" style="fill:#ffb0ac;stroke:none;stroke-width:1px;stroke-linecap:butt;stroke-linejoin:miter;stroke-opacity:1"/><path d="M118.638 102.129c-.283-1.352-2.144-2.375-3.513-2.194-2.135.283-2.998 2.117-2.998 2.117s1.259.118 2.473.933c.823.552 1.891 1.232 2.829.912.675-.231 1.355-1.07 1.21-1.768z" style="fill:#ffb0ac;stroke:none;stroke-width:1.14229929px;stroke-linecap:butt;stroke-linejoin:miter;stroke-opacity:1"/><rect width="4" height="4" x="120" y="104" ry="2" style="opacity:1;vector-effect:none;fill:#ffd6d4;fill-opacity:1;fill-rule:evenodd;stroke:none;stroke-width:8;stroke-linecap:round;stroke-linejoin:round;stroke-miterlimit:4;stroke-dasharray:none;paint-order:stroke fill markers"/><path d="M88 100c-2.573 0-13.953 17.26-24 20-1.333.363-2.622.727-3.875 1.09C63.195 124.36 67.593 128 72 128c5.636 0 10.263-3.97 15.898-4.041 5.685-.072 7.606 4.07 12 3.99C105.86 127.841 110.038 120 116 120c2.981 0 5.019 4 8 4 5.262 0 8.463-1.927 10.223-3.527-.759-.158-1.434-.315-2.223-.473-11.14-2.228-24-18.144-25.678-18.406-.849-.133-1.463 1.104-2.322 1.117-1.75.026-3.048-2.2-4.797-2.135-1.5.057-2.466 2.099-3.967 2.135C93.96 102.74 92.95 100 88 100z" style="fill:#979797;stroke:none;stroke-width:1px;stroke-linecap:butt;stroke-linejoin:miter;stroke-opacity:1"/><path d="M88 100c-1.349 0-5.128 4.746-9.857 9.654C80.985 108.784 84.472 108 88 108c4.935 0 9.319 4 14.254 4 5.051 0 8.778-1.626 11.482-3.676-3.835-3.572-6.692-6.617-7.414-6.73-.849-.133-1.463 1.104-2.322 1.117-1.75.026-3.048-2.2-4.797-2.135-1.5.057-2.466 2.099-3.967 2.135C93.96 102.74 92.95 100 88 100z" style="fill:#b1b5bd;stroke:none;stroke-width:1px;stroke-linecap:butt;stroke-linejoin:miter;stroke-opacity:1"/></svg>
